icons/arrow-box-out-up.svg

<svg xmlns="http://www.w3.org/2000/svg" width="24" height="24" viewBox="0 0 24 24">
  <path d="M8,9 C8.55228475,9 9,9.44771525 9,10 C9,10.5128358 8.61395981,10.9355072 8.11662113,10.9932723 L8,11 L7,11 C6.48716416,11 6.06449284,11.3860402 6.00672773,11.8833789 L6,12 L6,20 C6,20.5128358 6.38604019,20.9355072 6.88337887,20.9932723 L7,21 L17,21 C17.5128358,21 17.9355072,20.6139598 17.9932723,20.1166211 L18,20 L18,12 C18,11.4871642 17.6139598,11.0644928 17.1166211,11.0067277 L17,11 L16,11 C15.4477153,11 15,10.5522847 15,10 C15,9.48716416 15.3860402,9.06449284 15.8833789,9.00672773 L16,9 L17,9 C18.5976809,9 19.9036609,10.24892 19.9949073,11.8237272 L20,12 L20,20 C20,21.5976809 18.75108,22.9036609 17.1762728,22.9949073 L17,23 L7,23 C5.40231912,23 4.09633912,21.75108 4.00509269,20.1762728 L4,20 L4,12 C4,10.4023191 5.24891996,9.09633912 6.82372721,9.00509269 L7,9 L8,9 Z M12,1 L12.018,1.001 L12.0590314,1.0017331 C12.0691128,1.00232561 12.0791869,1.00307004 12.0892501,1.00396641 L12,1 C12.0506203,1 12.1003621,1.00376119 12.1489612,1.01101934 C12.165949,1.01362808 12.1833753,1.01670217 12.2007258,1.02024007 C12.2227461,1.0246398 12.2444365,1.02983363 12.2658396,1.03572097 C12.2814633,1.04009773 12.2968513,1.04472872 12.3121425,1.04973809 C12.3317977,1.05612249 12.3515792,1.06331574 12.3710585,1.07110396 C12.3887956,1.07819642 12.4060985,1.08567905 12.4232215,1.09367336 C12.4438914,1.10337664 12.4642939,1.11379392 12.484277,1.12487577 C12.4963944,1.13149883 12.5086131,1.13860692 12.5207088,1.14599545 C12.546275,1.1617187 12.5711307,1.17849009 12.5951593,1.19631351 C12.6012086,1.20071786 12.6070733,1.20517454 12.6128994,1.20970461 C12.6196628,1.21507113 12.6225624,1.2173721 12.625449,1.21968877 L12.7071068,1.29289322 L16.9497475,5.53553391 C17.3402718,5.9260582 17.3402718,6.55922318 16.9497475,6.94974747 C16.5892635,7.31023143 16.0220325,7.33796097 15.6297412,7.03293607 L15.5355339,6.94974747 L12.999,4.413 L13,14 C13,14.5522847 12.5522847,15 12,15 C11.4871642,15 11.0644928,14.6139598 11.0067277,14.1166211 L11,14 L10.999,4.415 L8.46446609,6.94974747 C8.0739418,7.34027176 7.44077682,7.34027176 7.05025253,6.94974747 C6.68976857,6.58926351 6.66203903,6.02203245 6.96706393,5.62974124 L7.05025253,5.53553391 L11.2928932,1.29289322 L11.374551,1.21968877 C11.3774376,1.2173721 11.3803372,1.21507113 11.3832499,1.21278596 L11.2928932,1.29289322 C11.3282873,1.25749917 11.3656744,1.22531295 11.4046934,1.19633458 C11.4288693,1.17849009 11.453725,1.1617187 11.4793398,1.14606743 C11.4913869,1.13860692 11.5036056,1.13149883 11.5159379,1.12467117 C11.5357061,1.11379392 11.5561086,1.10337664 11.5769009,1.09365378 C11.5939015,1.08567905 11.6112044,1.07819642 11.628664,1.07122549 C11.6484208,1.06331574 11.6682023,1.05612249 11.6882636,1.04954668 C11.7031487,1.04472872 11.7185367,1.04009773 11.734007,1.03584514 C11.7555635,1.02983363 11.7772539,1.0246398 11.7992059,1.02016515 C11.8166247,1.01670217 11.834051,1.01362808 11.8515331,1.0110178 C11.8705796,1.00810098 11.8903051,1.00574796 11.9101982,1.00397748 C11.9208131,1.00307004 11.9308872,1.00232561 11.9409686,1.0017331 L11.9806591,1.0001833 C11.9870914,1.00006128 11.9935385,1 12,1 Z"/>
</svg>

<svg xmlns="http://www.w3.org/2000/svg" viewBox="0 0 24 24">
  <path d="M8 9a1 1 0 0 1 .12 2H7a1 1 0 0 0-1 .88V20a1 1 0 0 0 .88 1H17a1 1 0 0 0 1-.88V12a1 1 0 0 0-.88-1H16a1 1 0 0 1-.12-2H17a3 3 0 0 1 3 2.82V20a3 3 0 0 1-2.82 3H7a3 3 0 0 1-3-2.82V12a3 3 0 0 1 2.82-3H8zm4-8h.06a1 1 0 0 1 .03 0H12a1 1 0 0 1 .63.22l.08.07 4.24 4.25a1 1 0 0 1-1.32 1.5l-.1-.09L13 4.41V14a1 1 0 0 1-2 .12V4.4L8.46 6.95a1 1 0 0 1-1.5-1.32l.09-.1 4.24-4.24.08-.07h.01l-.09.07a1 1 0 0 1 .65-.29H12z"/>
</svg>
